packages/icons/svg/Navigation_Display_Blink_32px.svg

<svg xmlns="http://www.w3.org/2000/svg" viewBox="0 0 32 32"><circle cx="16" cy="16" r="1.95"/><path d="M16 11.81a1 1 0 01-1-1V4a1 1 0 012 0v6.81a1 1 0 01-1 1zM19.89 13.11a1 1 0 01-.71-1.71l4.59-4.59a1 1 0 011.42 0 1 1 0 010 1.41l-4.59 4.59a1 1 0 01-.71.3zM28 17h-6.81a1 1 0 110-2H28a1 1 0 010 2zM24.48 25.48a1 1 0 01-.71-.29l-4.59-4.59a1 1 0 011.42-1.42l4.59 4.59a1 1 0 010 1.42 1 1 0 01-.71.29zM16 29a1 1 0 01-1-1v-6.81a1 1 0 112 0V28a1 1 0 01-1 1zM12.11 13.11a1 1 0 01-.71-.3L6.81 8.22a1 1 0 011.41-1.41l4.59 4.59a1 1 0 010 1.41 1 1 0 01-.7.3zM10.81 17H4a1 1 0 010-2h6.81a1 1 0 110 2zM7.51 25.48a1 1 0 01-.7-1.71l4.59-4.59a1 1 0 011.41 0 1 1 0 010 1.42l-4.59 4.59a1 1 0 01-.71.29z"/></svg>

<svg xmlns="http://www.w3.org/2000/svg" viewBox="0 0 32 32"><defs></defs><g id="Name"><circle  cx="16" cy="16" r="1.95"/><path  d="M16,11.81a1,1,0,0,1-1-1V4a1,1,0,0,1,2,0v6.81A1,1,0,0,1,16,11.81Z"/><path  d="M19.89,13.11a1,1,0,0,1-.71-1.71l4.59-4.59a1,1,0,0,1,1.42,0,1,1,0,0,1,0,1.41L20.6,12.81A1,1,0,0,1,19.89,13.11Z"/><path  d="M28,17H21.19a1,1,0,1,1,0-2H28a1,1,0,0,1,0,2Z"/><path  d="M24.48,25.48a1,1,0,0,1-.71-.29L19.18,20.6a1,1,0,0,1,1.42-1.42l4.59,4.59a1,1,0,0,1,0,1.42A1,1,0,0,1,24.48,25.48Z"/><path  d="M16,29a1,1,0,0,1-1-1V21.19a1,1,0,1,1,2,0V28A1,1,0,0,1,16,29Z"/><path  d="M12.11,13.11a1,1,0,0,1-.71-.3L6.81,8.22A1,1,0,0,1,8.22,6.81l4.59,4.59a1,1,0,0,1,0,1.41A1,1,0,0,1,12.11,13.11Z"/><path  d="M10.81,17H4a1,1,0,0,1,0-2h6.81a1,1,0,1,1,0,2Z"/><path  d="M7.51,25.48a1,1,0,0,1-.7-1.71l4.59-4.59a1,1,0,0,1,1.41,0,1,1,0,0,1,0,1.42L8.22,25.19A1,1,0,0,1,7.51,25.48Z"/></g></svg>
